X: 21
T:The Anvil
M:4/4
L:1/8
C:No idea
R:reel
N:start very slowly and accelerate on each repeat
N:from The Scottish Music List, Vol2 No 87
Z:Martin Burns
K:Amin
E2A2|EAAB cBA2|F2A2|FAAB cBA2|
G2B2|GBBc dcB2|cBAB c2A2|cBAB c2A2:|
eaed cBA2|aged cBA2|F2AB cBAB|F2AB cABA|
G2Bc dcBc|dcBc dcBd|cBAB c2Ac|cBAB c2A2:|
